_includes/icons/color-safe-ok.svg

<svg fill="#666" height="50" viewBox="0 0 48 48" width="50" xmlns="http://www.w3.org/2000/svg"><path d="m8 39h6v3h-6z" fill="#455a64"/><path d="m40 41h-32c-2.210937 0-4-1.789062-4-4v-26c0-2.210937 1.789063-4 4-4h32c2.210938 0 4 1.789063 4 4v26c0 2.210938-1.789062 4-4 4z" fill="#78909c"/><path d="m40 38h-32c-.550781 0-1-.449219-1-1v-26c0-.550781.449219-1 1-1h32c.550781 0 1 .449219 1 1v26c0 .550781-.449219 1-1 1z" fill="#90a4ae"/><path d="m29 14c-5.523437 0-10 4.476563-10 10 0 5.523438 4.476563 10 10 10 5.523438 0 10-4.476562 10-10 0-5.523437-4.476562-10-10-10zm0 17c-3.867187 0-7-3.132812-7-7 0-3.867187 3.132813-7 7-7 3.867188 0 7 3.132813 7 7 0 3.867188-3.132812 7-7 7z" fill="#37474f"/><g fill="#b0bec5"><path d="m35.3125 19.101563.40625-.40625c.390625-.390625.390625-1.019532 0-1.414063-.394531-.390625-1.023437-.390625-1.414062 0l-.40625.40625c.53125.410156 1.003906.882813 1.414062 1.414063z"/><path d="m22.6875 19.101563c.410156-.53125.882813-1.003907 1.414063-1.414063l-.40625-.40625c-.390625-.390625-1.019532-.390625-1.414063 0-.390625.394531-.390625 1.023438 0 1.414063z"/><path d="m21 24c0-.339844.027344-.671875.070313-1h-.570313c-.550781 0-1 .449219-1 1s.449219 1 1 1h.570313c-.042969-.328125-.070313-.660156-.070313-1z"/><path d="m29 16c.339844 0 .671875.027344 1 .070313v-.570313c0-.550781-.449219-1-1-1s-1 .449219-1 1v.570313c.328125-.042969.660156-.070313 1-.070313z"/><path d="m35.3125 28.898438c-.410156.53125-.882812 1.003906-1.414062 1.414062l.40625.40625c.191406.191406.449218.292969.707031.292969.253906 0 .511719-.101563.707031-.292969.390625-.394531.390625-1.023437 0-1.414062z"/><path d="m22.6875 28.898438-.40625.40625c-.390625.390625-.390625 1.019531 0 1.414062.195313.191406.453125.292969.707031.292969.257813 0 .515625-.101563.707032-.292969l.40625-.40625c-.53125-.410156-1.003907-.882812-1.414063-1.414062z"/><path d="m37.5 23h-.570312c.042968.328125.070312.660156.070312 1s-.027344.671875-.070312 1h.570312c.550781 0 1-.449219 1-1s-.449219-1-1-1z"/><path d="m29 32c-.339844 0-.671875-.027344-1-.070312v.570312c0 .550781.449219 1 1 1s1-.449219 1-1v-.570312c-.328125.042968-.660156.070312-1 .070312z"/></g><path d="m12 20c-1.105469 0-2 .894531-2 2v8c0 1.105469.894531 2 2 2s2-.894531 2-2v-8c0-1.105469-.894531-2-2-2z" fill="#455a64"/><path d="m12 18c-1.105469 0-2 .894531-2 2v8c0 1.105469.894531 2 2 2s2-.894531 2-2v-8c0-1.105469-.894531-2-2-2z" fill="#cfd8dc"/><path d="m48 38c0 5.523438-4.476562 10-10 10-5.523437 0-10-4.476562-10-10 0-5.523437 4.476563-10 10-10 5.523438 0 10 4.476563 10 10z" fill="#43a047"/><path d="m42.492188 33.347656-5.691407 5.703125-2.726562-2.722656-2.125 2.128906 4.855469 4.84375 7.816406-7.828125z" fill="#dcedc8"/></svg>

<svg xmlns="http://www.w3.org/2000/svg" viewBox="0 0 48 48" width="50" height="50" fill="#666"><path d="M 8 39 L 14 39 L 14 42 L 8 42 Z" fill="#455a64"/><path d="M 40 41 L 8 41 C 5.789063 41 4 39.210938 4 37 L 4 11 C 4 8.789063 5.789063 7 8 7 L 40 7 C 42.210938 7 44 8.789063 44 11 L 44 37 C 44 39.210938 42.210938 41 40 41 Z" fill="#78909c"/><path d="M 40 38 L 8 38 C 7.449219 38 7 37.550781 7 37 L 7 11 C 7 10.449219 7.449219 10 8 10 L 40 10 C 40.550781 10 41 10.449219 41 11 L 41 37 C 41 37.550781 40.550781 38 40 38 Z" fill="#90a4ae"/><path d="M 29 14 C 23.476563 14 19 18.476563 19 24 C 19 29.523438 23.476563 34 29 34 C 34.523438 34 39 29.523438 39 24 C 39 18.476563 34.523438 14 29 14 Z M 29 31 C 25.132813 31 22 27.867188 22 24 C 22 20.132813 25.132813 17 29 17 C 32.867188 17 36 20.132813 36 24 C 36 27.867188 32.867188 31 29 31 Z" fill="#37474f"/><path d="M 35.3125 19.101563 L 35.71875 18.695313 C 36.109375 18.304688 36.109375 17.675781 35.71875 17.28125 C 35.324219 16.890625 34.695313 16.890625 34.304688 17.28125 L 33.898438 17.6875 C 34.429688 18.097656 34.902344 18.570313 35.3125 19.101563 Z" fill="#b0bec5"/><path d="M 22.6875 19.101563 C 23.097656 18.570313 23.570313 18.097656 24.101563 17.6875 L 23.695313 17.28125 C 23.304688 16.890625 22.675781 16.890625 22.28125 17.28125 C 21.890625 17.675781 21.890625 18.304688 22.28125 18.695313 Z" fill="#b0bec5"/><path d="M 21 24 C 21 23.660156 21.027344 23.328125 21.070313 23 L 20.5 23 C 19.949219 23 19.5 23.449219 19.5 24 C 19.5 24.550781 19.949219 25 20.5 25 L 21.070313 25 C 21.027344 24.671875 21 24.339844 21 24 Z" fill="#b0bec5"/><path d="M 29 16 C 29.339844 16 29.671875 16.027344 30 16.070313 L 30 15.5 C 30 14.949219 29.550781 14.5 29 14.5 C 28.449219 14.5 28 14.949219 28 15.5 L 28 16.070313 C 28.328125 16.027344 28.660156 16 29 16 Z" fill="#b0bec5"/><path d="M 35.3125 28.898438 C 34.902344 29.429688 34.429688 29.902344 33.898438 30.3125 L 34.304688 30.71875 C 34.496094 30.910156 34.753906 31.011719 35.011719 31.011719 C 35.265625 31.011719 35.523438 30.910156 35.71875 30.71875 C 36.109375 30.324219 36.109375 29.695313 35.71875 29.304688 Z" fill="#b0bec5"/><path d="M 22.6875 28.898438 L 22.28125 29.304688 C 21.890625 29.695313 21.890625 30.324219 22.28125 30.71875 C 22.476563 30.910156 22.734375 31.011719 22.988281 31.011719 C 23.246094 31.011719 23.503906 30.910156 23.695313 30.71875 L 24.101563 30.3125 C 23.570313 29.902344 23.097656 29.429688 22.6875 28.898438 Z" fill="#b0bec5"/><path d="M 37.5 23 L 36.929688 23 C 36.972656 23.328125 37 23.660156 37 24 C 37 24.339844 36.972656 24.671875 36.929688 25 L 37.5 25 C 38.050781 25 38.5 24.550781 38.5 24 C 38.5 23.449219 38.050781 23 37.5 23 Z" fill="#b0bec5"/><path d="M 29 32 C 28.660156 32 28.328125 31.972656 28 31.929688 L 28 32.5 C 28 33.050781 28.449219 33.5 29 33.5 C 29.550781 33.5 30 33.050781 30 32.5 L 30 31.929688 C 29.671875 31.972656 29.339844 32 29 32 Z" fill="#b0bec5"/><path d="M 12 20 C 10.894531 20 10 20.894531 10 22 L 10 30 C 10 31.105469 10.894531 32 12 32 C 13.105469 32 14 31.105469 14 30 L 14 22 C 14 20.894531 13.105469 20 12 20 Z" fill="#455a64"/><path d="M 12 18 C 10.894531 18 10 18.894531 10 20 L 10 28 C 10 29.105469 10.894531 30 12 30 C 13.105469 30 14 29.105469 14 28 L 14 20 C 14 18.894531 13.105469 18 12 18 Z" fill="#cfd8dc"/><path d="M 48 38 C 48 43.523438 43.523438 48 38 48 C 32.476563 48 28 43.523438 28 38 C 28 32.476563 32.476563 28 38 28 C 43.523438 28 48 32.476563 48 38 Z" fill="#43a047"/><path d="M 42.492188 33.347656 L 36.800781 39.050781 L 34.074219 36.328125 L 31.949219 38.457031 L 36.804688 43.300781 L 44.621094 35.472656 Z" fill="#dcedc8"/></svg>
